Numix-GalliumOS/32/mimetypes/application-font.svg

<?xml version="1.0" encoding="UTF-8" standalone="no"?>
<svg
   xmlns:dc="http://purl.org/dc/elements/1.1/"
   xmlns:cc="http://creativecommons.org/ns#"
   xmlns:rdf="http://www.w3.org/1999/02/22-rdf-syntax-ns#"
   xmlns:svg="http://www.w3.org/2000/svg"
   xmlns="http://www.w3.org/2000/svg"
   xmlns:sodipodi="http://sodipodi.sourceforge.net/DTD/sodipodi-0.dtd"
   xmlns:inkscape="http://www.inkscape.org/namespaces/inkscape"
   width="32"
   height="32"
   viewBox="0 0 32 32"
   id="svg2"
   version="1.1"
   inkscape:version="0.48.5 r10040"
   sodipodi:docname="application-font.svg">
  <metadata
     id="metadata16">
    <rdf:RDF>
      <cc:Work
         rdf:about="">
        <dc:format>image/svg+xml</dc:format>
        <dc:type
           rdf:resource="http://purl.org/dc/dcmitype/StillImage" />
      </cc:Work>
    </rdf:RDF>
  </metadata>
  <defs
     id="defs14" />
  <sodipodi:namedview
     pagecolor="#ffffff"
     bordercolor="#666666"
     borderopacity="1"
     objecttolerance="10"
     gridtolerance="10"
     guidetolerance="10"
     inkscape:pageopacity="0"
     inkscape:pageshadow="2"
     inkscape:window-width="1280"
     inkscape:window-height="970"
     id="namedview12"
     showgrid="true"
     inkscape:zoom="10.429825"
     inkscape:cx="27.503515"
     inkscape:cy="19.222409"
     inkscape:window-x="0"
     inkscape:window-y="0"
     inkscape:window-maximized="1"
     inkscape:current-layer="svg2">
    <inkscape:grid
       type="xygrid"
       id="grid3004" />
  </sodipodi:namedview>
  <path
     style="fill:#dcdcdc;fill-opacity:1"
     d="M 5.335888,2.971e-4 C 4.648414,3.12e-4 4,0.6767879 4,1.3940312 L 4,30.606268 C 4,31.282757 4.687474,32 5.335888,32 l 21.327332,0 c 0.648414,0 1.335888,-0.717243 1.335888,-1.393732 L 28,8.9999997 l -9,-9 z"
     id="path4-1"
     inkscape:connector-curvature="0"
     sodipodi:nodetypes="ssssssccs" />
  <path
     style="fill:#000000;fill-opacity:0.19599998"
     d="M 21,8.9999997 28,16 28,8.9999997 z"
     id="path6-4"
     inkscape:connector-curvature="0"
     sodipodi:nodetypes="cccc" />
  <path
     style="fill:#ffffff;fill-opacity:0.39200003"
     d="m 19.000306,2.971e-4 8.991594,8.9997026 -7.613262,0 c -0.672951,0 -1.378332,-0.7134896 -1.378332,-1.3864402 z"
     id="path8-6"
     inkscape:connector-curvature="0"
     sodipodi:nodetypes="ccssc" />
  <path
     style="fill:#545454"
     d="m 20.429656,10 -0.947553,11.38705 c -0.04922,0.533254 -0.07383,0.881922 -0.07383,1.050102 0,0.266628 0.04922,0.475828 0.139466,0.615295 0.114855,0.196895 0.27073,0.340462 0.467624,0.434808 0.200996,0.09434 0.537357,0.139466 1.009083,0.139466 L 20.925996,24 l -4.905948,0 0.102553,-0.373279 0.213303,0 c 0.39789,0 0.721946,-0.09434 0.972165,-0.283035 0.176385,-0.12716 0.315851,-0.336361 0.414298,-0.635805 0.06563,-0.209199 0.131263,-0.697333 0.192793,-1.472604 l 0.143567,-1.73513 -3.560502,0 -1.267508,1.886903 c -0.287137,0.422502 -0.467623,0.730149 -0.541459,0.918839 -0.07383,0.180487 -0.110753,0.35277 -0.110753,0.512746 0,0.217403 0.08204,0.401993 0.237914,0.557867 0.159977,0.151772 0.422503,0.237914 0.791679,0.250219 L 13.505545,24 9.826084,24 9.9245311,23.626721 c 0.4553169,-0.02051 0.8532079,-0.184588 1.1936719,-0.492235 0.348666,-0.315851 0.865513,-0.988573 1.554643,-2.009962 L 20.109706,10 l 0.319953,0 m -1.81717,3.359508 -3.609728,5.402285 3.129798,0 0.47993,-5.402285"
     id="path10"
     inkscape:connector-curvature="0" />
</svg>

<svg xmlns="http://www.w3.org/2000/svg" viewBox="0 0 32 32">
 <path d="m 5.336 0 c -0.687 0 -1.336 0.676 -1.336 1.394 l 0 29.21 c 0 0.676 0.687 1.394 1.336 1.394 l 21.327 0 c 0.648 0 1.336 -0.717 1.336 -1.394 l 0.001 -21.606 l -9 -9 z" style="fill:#dcdcdc;fill-opacity:1"/>
 <path d="m 21 9 7 7 0 -7 z" style="fill:#000;fill-opacity:0.196"/>
 <path d="m 19 0 8.992 9 -7.613 0 c -0.673 0 -1.378 -0.713 -1.378 -1.386 z" style="fill:#fff;fill-opacity:0.392"/>
 <path d="m 20.43 10 -0.948 11.387 c -0.049 0.533 -0.074 0.882 -0.074 1.05 0 0.267 0.049 0.476 0.139 0.615 0.115 0.197 0.271 0.34 0.468 0.435 0.201 0.094 0.537 0.139 1.01 0.139 l -0.098 0.373 l -4.906 0 0.103 -0.373 0.213 0 c 0.398 0 0.722 -0.094 0.972 -0.283 0.176 -0.127 0.316 -0.336 0.414 -0.636 0.066 -0.209 0.131 -0.697 0.193 -1.473 l 0.144 -1.735 -3.561 0 -1.268 1.887 c -0.287 0.423 -0.468 0.73 -0.541 0.919 -0.074 0.18 -0.111 0.353 -0.111 0.513 0 0.217 0.082 0.402 0.238 0.558 0.16 0.152 0.423 0.238 0.792 0.25 l -0.103 0.373 -3.679 0 0.098 -0.373 c 0.455 -0.021 0.853 -0.185 1.194 -0.492 0.349 -0.316 0.866 -0.989 1.555 -2.01 l 7.437 -11.125 l 0.32 0 m -1.817 3.36 -3.61 5.402 3.13 0 0.48 -5.402" style="fill:#555;fill-opacity:1"/>
</svg>
